X: 10278
T: Dog Leap Stairs
R: three-two
M: 3/2
K: Gmajor
|:dcBA G2Bd cBAG|c2 E4 A2 F4|BAGD B,2DG ABcd|e2 E4 F2 G4:|
|:gabg d2gb a2gf|edcB A2EG F4|GABd g2bg a2gf|efga f2ed g4:|
|:d4 B2 G4 E2|ABcA E2cB AGFA|B4 G2 E4 G2|ABcd e2cA G4:|
|:D4 G2 E4 G2|FGAF D2dB AGFE|D4 G2 E4 G2|AGFA D2FA G4:|

